public/assets/standards/sci/infra-icon.svg

<svg width="48" height="48" viewBox="0 0 48 48" fill="none" xmlns="http://www.w3.org/2000/svg">
<path d="M1.44003 29.81C1.25003 29.81 1.07003 29.71 0.970027 29.54C0.810027 29.28 0.900027 28.94 1.16003 28.79L40.92 5.12C41.18 4.96 41.52 5.05 41.67 5.31C41.83 5.57 41.74 5.91 41.48 6.06L1.72003 29.73C1.63003 29.78 1.53003 29.81 1.44003 29.81Z" fill="#A5C352"/>
<path d="M42.2 9.47L45.95 2.77L38.27 2.87L42.2 9.47Z" fill="#A5C352"/>
<path d="M35.79 42.25H38.95C42.25 42.25 45.09 40.16 46.22 37.24C46.72 35.95 46.76 34.52 46.39 33.18L41.44 15.37C40.3 11.25 34.47 11.25 33.32 15.37C31.33 22.52 29.19 30.21 28.36 33.18C27.99 34.52 28.02 35.95 28.52 37.25C29.65 40.17 32.49 42.25 35.79 42.25Z" fill="#006D68"/>
<path d="M37.37 46.88C37.02 46.88 36.73 46.59 36.73 46.24V21.98C36.73 21.63 37.02 21.34 37.37 21.34C37.72 21.34 38.01 21.63 38.01 21.98V46.24C38.01 46.59 37.72 46.88 37.37 46.88Z" fill="#A5C352"/>
<path d="M35.92 22.06C35.92 21.26 36.57 20.62 37.36 20.62C38.15 20.62 38.8 21.27 38.8 22.06C38.8 22.85 38.15 23.5 37.36 23.5C36.57 23.5 35.92 22.85 35.92 22.06Z" fill="#A5C352"/>
<path d="M18.36 42.25H20.38C22.5 42.25 24.31 41.02 25.04 39.29C25.36 38.53 25.38 37.68 25.15 36.89L21.98 26.37C21.25 23.94 17.51 23.94 16.78 26.37C15.51 30.59 14.13 35.13 13.6 36.89C13.36 37.68 13.38 38.53 13.7 39.29C14.42 41.01 16.24 42.25 18.36 42.25Z" fill="#006D68"/>
<path d="M19.37 47.3C19.02 47.3 18.73 47.01 18.73 46.66V30.41C18.73 30.06 19.02 29.77 19.37 29.77C19.72 29.77 20.01 30.06 20.01 30.41V46.66C20.01 47.01 19.72 47.3 19.37 47.3Z" fill="#A5C352"/>
<path d="M5.33997 42.3H6.72997C8.17997 42.3 9.42997 41.5 9.91997 40.39C10.14 39.9 10.16 39.35 9.98997 38.84L7.81997 32.04C7.31997 30.47 4.75997 30.47 4.25997 32.04C3.38997 34.77 2.44997 37.71 2.07997 38.84C1.91997 39.35 1.92997 39.9 2.14997 40.39C2.63997 41.5 3.88997 42.3 5.33997 42.3Z" fill="#006D68"/>
<path d="M6.02995 47.3C5.67995 47.3 5.38995 47.01 5.38995 46.66V36.16C5.38995 35.81 5.67995 35.52 6.02995 35.52C6.37995 35.52 6.66995 35.81 6.66995 36.16V46.66C6.66995 47.01 6.37995 47.3 6.02995 47.3Z" fill="#A5C352"/>
<path d="M46.01 47.53H1.74002C1.45002 47.53 1.21002 47.29 1.21002 47C1.21002 46.71 1.45002 46.47 1.74002 46.47H46.01C46.3 46.47 46.54 46.71 46.54 47C46.54 47.29 46.3 47.53 46.01 47.53Z" fill="#A5C352"/>
</svg>

<svg xmlns="http://www.w3.org/2000/svg" width="48" height="48" fill="none" viewBox="0 0 48 48"><path fill="#a5c352" d="M1.44 29.81c-.19 0-.37-.1-.47-.27-.16-.26-.07-.6.19-.75L40.92 5.12c.26-.16.6-.07.75.19.16.26.07.6-.19.75L1.72 29.73c-.09.05-.19.08-.28.08"/><path fill="#a5c352" d="m42.2 9.47 3.75-6.7-7.68.1z"/><path fill="#006d68" d="M35.79 42.25h3.16c3.3 0 6.14-2.09 7.27-5.01.5-1.29.54-2.72.17-4.06l-4.95-17.81c-1.14-4.12-6.97-4.12-8.12 0-1.99 7.15-4.13 14.84-4.96 17.81-.37 1.34-.34 2.77.16 4.07 1.13 2.92 3.97 5 7.27 5"/><path fill="#a5c352" d="M37.37 46.88c-.35 0-.64-.29-.64-.64V21.98c0-.35.29-.64.64-.64s.64.29.64.64v24.26c0 .35-.29.64-.64.64"/><path fill="#a5c352" d="M35.92 22.06c0-.8.65-1.44 1.44-1.44s1.44.65 1.44 1.44-.65 1.44-1.44 1.44-1.44-.65-1.44-1.44"/><path fill="#006d68" d="M18.36 42.25h2.02c2.12 0 3.93-1.23 4.66-2.96.32-.76.34-1.61.11-2.4l-3.17-10.52c-.73-2.43-4.47-2.43-5.2 0-1.27 4.22-2.65 8.76-3.18 10.52-.24.79-.22 1.64.1 2.4.72 1.72 2.54 2.96 4.66 2.96"/><path fill="#a5c352" d="M19.37 47.3c-.35 0-.64-.29-.64-.64V30.41c0-.35.29-.64.64-.64s.64.29.64.64v16.25c0 .35-.29.64-.64.64"/><path fill="#006d68" d="M5.34 42.3h1.39c1.45 0 2.7-.8 3.19-1.91.22-.49.24-1.04.07-1.55l-2.17-6.8c-.5-1.57-3.06-1.57-3.56 0-.87 2.73-1.81 5.67-2.18 6.8-.16.51-.15 1.06.07 1.55.49 1.11 1.74 1.91 3.19 1.91"/><path fill="#a5c352" d="M6.03 47.3c-.35 0-.64-.29-.64-.64v-10.5c0-.35.29-.64.64-.64s.64.29.64.64v10.5c0 .35-.29.64-.64.64"/><path fill="#a5c352" d="M46.01 47.53H1.74c-.29 0-.53-.24-.53-.53s.24-.53.53-.53h44.27c.29 0 .53.24.53.53s-.24.53-.53.53"/></svg>
